svgs/sharp-solid/baht-sign.svg

<svg xmlns="http://www.w3.org/2000/svg" viewBox="0 0 320 512"><!--! Font Awesome Pro 6.6.0 by @fontawesome - https://fontawesome.com License - https://fontawesome.com/license (Commercial License) Copyright 2024 Fonticons, Inc. --><path d="M176 0L112 0l0 64L64 64 0 64l0 64 0 96 0 64 0 96 0 64 64 0 48 0 0 64 64 0 0-64 32 0c61.9 0 112-50.1 112-112c0-40.1-21.1-75.3-52.7-95.1C280.3 222.6 288 200.2 288 176c0-61.9-50.1-112-112-112l0-64zM112 128l0 96-48 0 0-96 48 0zm64 96l0-96c26.5 0 48 21.5 48 48s-21.5 48-48 48zm-64 64l0 96-48 0 0-96 48 0zm64 96l0-96 32 0c26.5 0 48 21.5 48 48s-21.5 48-48 48l-32 0z"/></svg>

<svg xmlns="http://www.w3.org/2000/svg" viewBox="0 0 320 512"><!--! Font Awesome Pro 6.4.2 by @fontawesome - https://fontawesome.com License - https://fontawesome.com/license (Commercial License) Copyright 2023 Fonticons, Inc. --><path d="M176 0H112V64H64 0v64 96 64 96 64H64h48v64h64V448h32c61.9 0 112-50.1 112-112c0-40.1-21.1-75.3-52.7-95.1C280.3 222.6 288 200.2 288 176c0-61.9-50.1-112-112-112V0zM112 128v96H64V128h48zm64 96V128c26.5 0 48 21.5 48 48s-21.5 48-48 48zm-64 64v96H64V288h48zm64 96V288h32c26.5 0 48 21.5 48 48s-21.5 48-48 48H176z"/></svg>
